dist/img/Settings.svg

<svg width="23" height="23" viewBox="0 0 23 23" fill="none" xmlns="http://www.w3.org/2000/svg">
<path d="M13.3487 22.4635H9.65083C9.33833 22.4635 9.06489 22.3767 8.83051 22.2031C8.59614 22.0295 8.47027 21.7778 8.45291 21.4479L8.06228 19C7.81923 18.9306 7.55013 18.809 7.25499 18.6354C6.95985 18.4618 6.7168 18.2969 6.52583 18.1406L4.28624 19.2083C4.02582 19.3472 3.74371 19.3646 3.43989 19.2604C3.13607 19.1562 2.90603 18.9566 2.74978 18.6615L0.900825 15.3542C0.709853 15.0937 0.657769 14.816 0.744575 14.5208C0.83138 14.2257 0.98763 13.9913 1.21332 13.8177L3.29666 12.2812C3.2793 12.1944 3.27062 12.0686 3.27062 11.9036V11.1224C3.27062 10.9748 3.2793 10.8403 3.29666 10.7187L1.21332 9.18229C0.98763 8.99132 0.83138 8.7526 0.744575 8.46614C0.657769 8.17968 0.701172 7.89757 0.874783 7.61979L2.74978 4.3125C2.92339 4.05208 3.15777 3.87413 3.45291 3.77864C3.74805 3.68316 4.02582 3.69618 4.28624 3.81771L6.57791 4.85937C6.75152 4.73784 6.98589 4.59027 7.28103 4.41666C7.57617 4.24305 7.83659 4.12153 8.06228 4.05208L8.45291 1.52604C8.47027 1.21354 8.60048 0.966143 8.84353 0.783852C9.08659 0.60156 9.35569 0.510414 9.65083 0.510414H13.3487C13.6439 0.510414 13.913 0.60156 14.156 0.783852C14.3991 0.966143 14.538 1.21354 14.5727 1.52604L14.9373 4.02604C15.1977 4.09548 15.4711 4.21701 15.7576 4.39062C16.0441 4.56423 16.2828 4.72048 16.4737 4.85937L18.7133 3.79166C18.9737 3.67014 19.2559 3.66146 19.5597 3.76562C19.8635 3.86979 20.0935 4.05208 20.2498 4.3125L22.1508 7.59375C22.3244 7.87153 22.3678 8.15798 22.281 8.45312C22.1942 8.74826 22.038 8.99132 21.8123 9.18229L19.6769 10.6406C19.6942 10.7795 19.7159 10.9271 19.742 11.0833C19.768 11.2396 19.781 11.3785 19.781 11.5C19.781 11.6215 19.768 11.7561 19.742 11.9036C19.7159 12.0512 19.6942 12.1858 19.6769 12.3073L21.8123 13.7917C22.038 14 22.1899 14.2474 22.268 14.5339C22.3461 14.8203 22.3071 15.1024 22.1508 15.3802L20.2498 18.6875C20.0762 18.9826 19.8418 19.1779 19.5467 19.2734C19.2515 19.3689 18.9737 19.3472 18.7133 19.2083L16.4737 18.1406C16.2828 18.2969 16.0354 18.4661 15.7316 18.6484C15.4277 18.8307 15.1717 18.9479 14.9633 19L14.5727 21.4479C14.538 21.7778 14.3991 22.0295 14.156 22.2031C13.913 22.3767 13.6439 22.4635 13.3487 22.4635ZM11.4737 14.8073C12.3939 14.8073 13.1751 14.4861 13.8175 13.8437C14.4599 13.2014 14.781 12.4201 14.781 11.5C14.781 10.5972 14.4599 9.82031 13.8175 9.16927C13.1751 8.51823 12.3939 8.19271 11.4737 8.19271C10.5362 8.19271 9.75065 8.51823 9.11697 9.16927C8.48329 9.82031 8.16645 10.5972 8.16645 11.5C8.16645 12.4201 8.48329 13.2014 9.11697 13.8437C9.75065 14.4861 10.5362 14.8073 11.4737 14.8073Z" fill="#00E0FF"/>
</svg>

<svg width="23" height="23" fill="none" xmlns="http://www.w3.org/2000/svg"><path d="M13.349 22.463H9.65a1.34 1.34 0 0 1-.82-.26c-.235-.174-.36-.425-.378-.755L8.063 19a3.55 3.55 0 0 1-.808-.365 5.828 5.828 0 0 1-.73-.494l-2.239 1.067c-.26.14-.542.157-.846.052a1.2 1.2 0 0 1-.69-.599L.9 15.354a.91.91 0 0 1-.155-.833 1.33 1.33 0 0 1 .468-.703l2.084-1.537a2.06 2.06 0 0 1-.026-.377v-.782c0-.147.008-.282.026-.403L1.213 9.182a1.48 1.48 0 0 1-.468-.716C.658 8.18.7 7.898.875 7.62L2.75 4.312c.173-.26.408-.438.703-.533.295-.096.573-.083.833.039l2.292 1.041c.174-.121.408-.269.703-.442a3.79 3.79 0 0 1 .781-.365l.39-2.526a.95.95 0 0 1 .392-.742C9.087.602 9.356.51 9.65.51h3.698c.295 0 .564.092.807.274.243.182.382.43.417.742l.364 2.5c.26.07.534.191.82.365.287.173.526.33.717.468l2.24-1.067c.26-.122.542-.13.846-.026.303.104.534.286.69.546l1.9 3.282c.174.278.218.564.131.86a1.479 1.479 0 0 1-.469.728l-2.135 1.459c.017.139.039.286.065.442.026.157.039.296.039.417s-.013.256-.039.404c-.026.147-.048.282-.065.403l2.135 1.485c.226.208.378.455.456.742.078.286.04.568-.117.846l-1.901 3.307a1.25 1.25 0 0 1-.703.586 1.03 1.03 0 0 1-.834-.065l-2.24-1.067c-.19.156-.438.325-.741.507-.304.183-.56.3-.769.352l-.39 2.448c-.035.33-.174.581-.417.755-.243.174-.512.26-.807.26Zm-1.875-7.656c.92 0 1.701-.32 2.344-.963.642-.643.963-1.424.963-2.344 0-.903-.321-1.68-.963-2.33a3.169 3.169 0 0 0-2.344-.977c-.938 0-1.723.325-2.357.976a3.225 3.225 0 0 0-.95 2.331c0 .92.316 1.701.95 2.344.634.642 1.42.963 2.357.963Z" fill="#00E0FF"/></svg>
